packages/icons/raw/imported/TimeSandglass.svg

<svg width="32" height="32" viewBox="0 0 32 32" fill="none" xmlns="http://www.w3.org/2000/svg">
<path d="M8.5 25C8.22386 25 8 25.2239 8 25.5C8 25.7761 8.22386 26 8.5 26V25ZM23.5 26C23.7761 26 24 25.7761 24 25.5C24 25.2239 23.7761 25 23.5 25V26ZM8.5 6C8.22386 6 8 6.22386 8 6.5C8 6.77614 8.22386 7 8.5 7V6ZM23.5 7C23.7761 7 24 6.77614 24 6.5C24 6.22386 23.7761 6 23.5 6V7ZM9.25 25.5H8.75V26H9.25V25.5ZM22.75 25.5V26H23.25V25.5H22.75ZM22.75 6.5L23.25 6.5L23.25 6L22.75 6V6.5ZM9.25 6.5V6L8.75 6L8.75 6.5L9.25 6.5ZM8.5 26H23.5V25H8.5V26ZM9.25 23.0769H22.75V22.0769H9.25V23.0769ZM9.25 9.92308H22.75V8.92308H9.25V9.92308ZM8.5 7H23.5V6H8.5V7ZM22.75 25H9.25V26H22.75V25ZM23.25 22.5769C23.25 18.6563 19.9917 15.5 16 15.5V16.5C19.4641 16.5 22.25 19.2329 22.25 22.5769H23.25ZM9.75 22.5769C9.75 19.2329 12.5359 16.5 16 16.5V15.5C12.0083 15.5 8.75 18.6563 8.75 22.5769H9.75ZM9.25 7L22.75 7L22.75 6L9.25 6L9.25 7ZM8.75 9.42308C8.75 13.3437 12.0083 16.5 16 16.5V15.5C12.5359 15.5 9.75 12.7671 9.75 9.42308H8.75ZM22.25 9.42308C22.25 12.7671 19.4641 15.5 16 15.5V16.5C19.9917 16.5 23.25 13.3437 23.25 9.42308H22.25ZM22.25 22.5769V25.5H23.25V22.5769H22.25ZM9.75 25.5V22.5769H8.75V25.5H9.75ZM9.75 9.42308L9.75 6.5L8.75 6.5L8.75 9.42308H9.75ZM22.25 6.5L22.25 9.42308L23.25 9.42308L23.25 6.5L22.25 6.5Z" fill="black"/>
</svg>

<svg width="32" height="32" fill="none" xmlns="http://www.w3.org/2000/svg"><path d="M8.5 25a.5.5 0 0 0 0 1v-1Zm15 1a.5.5 0 0 0 0-1v1ZM8.5 6a.5.5 0 0 0 0 1V6Zm15 1a.5.5 0 0 0 0-1v1ZM9.25 25.5h-.5v.5h.5v-.5Zm13.5 0v.5h.5v-.5h-.5Zm0-19h.5V6h-.5v.5Zm-13.5 0V6h-.5v.5h.5ZM8.5 26h15v-1h-15v1Zm.75-2.923h13.5v-1H9.25v1Zm0-13.154h13.5v-1H9.25v1ZM8.5 7h15V6h-15v1Zm14.25 18H9.25v1h13.5v-1Zm.5-2.423c0-3.92-3.258-7.077-7.25-7.077v1c3.464 0 6.25 2.733 6.25 6.077h1Zm-13.5 0c0-3.344 2.786-6.077 6.25-6.077v-1c-3.992 0-7.25 3.156-7.25 7.077h1ZM9.25 7h13.5V6H9.25v1Zm-.5 2.423c0 3.92 3.258 7.077 7.25 7.077v-1c-3.464 0-6.25-2.733-6.25-6.077h-1Zm13.5 0c0 3.344-2.786 6.077-6.25 6.077v1c3.992 0 7.25-3.156 7.25-7.077h-1Zm0 13.154V25.5h1v-2.923h-1ZM9.75 25.5v-2.923h-1V25.5h1Zm0-16.077V6.5h-1v2.923h1ZM22.25 6.5v2.923h1V6.5h-1Z" fill="#000"/></svg>
